X:08
T:Printems. ET.08, Le
M:6/8
L:1/8
Q:1/4=120
S:Eliza Tennyson MS, Lincolnshire,1822
R:Quadrille
O:England;Lincolnshire;Somersby
Z:vmp.R.Greig 2011 <http://www.village-music-project.org.uk>
K:Bb
F2F|B2″^cr. in ms”Fd2B|f3bfd|gec ecA|B2dF2F|!
B2Fd2B|f3bfd|gec ecA|B3||!
[fF][fF][fF]|f2ff2f|g2f ede|c2de2f|!
d2B fff|b2ag2^f|g2=fe2d|cde FGA|!
B3d2f|e2gc2e|d2fb2d’|[dd’][ee’][ff’] fga|!
b2a g^fg|e2c {g}f=ef|d2B efg|c2b aga|!D.C.!b3|]

